X:181
T:The buff coat has no fellow
M:6/8
L:1/8
K:Bb
%%score 1 2
V:1 clef-treble
V:2 clef-bass octave=-1
[V:1]!f![B,DB]2z[B,D]2z|C2z[CFA]2[EG]/A/|[DB]2F D2C|DB,2 z3:||
w:Drink, laugh, sing, boys, For the sol-dier has no fel-low.
[V:2][B,,B,]2z[G,G]2z|G2z [F,F]2[F,F]&[E,E]2x4|[B,B]2[F,F] [D,D]2[C,C]|[B,,B,]6:||
[V:1]B>cB GAB|c>Bc AGF|B2B cde|(d3f3)|
[V:2][DFB]2z[EGB]2z|[EGc]2z[Fc]2z|[GB]2z[Acf]2z|f6&B3d3|
[V:1]d>cd Bcd|c>Bc AGF|B2F D2C|DB,2z3||
[V:2][B,FB]2z[GBd]2z|[EGc]2z[FAc]2[F,F]|[B,B]2[F,F][D,D]2[C,C]|[B,,B,]6||

